Newaita-dark/actions/24/view-choose.svg

<svg height="24" viewBox="0 0 24 24" width="24" xmlns="http://www.w3.org/2000/svg"><g fill="#e0e0e0"><path d="m15.378906 16.0625h5.957032c.273437 0 .496093.222656.496093.496094v.992187c0 .277344-.222656.496094-.496093.496094h-5.957032c-.273437 0-.496094-.21875-.496094-.496094v-.992187c0-.273438.222657-.496094.496094-.496094zm0 0"/><path d="m15.378906 20.03125h5.957032c.273437 0 .496093.222656.496093.5v.992188c0 .273437-.222656.496093-.496093.496093h-5.957032c-.273437 0-.496094-.222656-.496094-.496093v-.992188c0-.277344.222657-.5.496094-.5zm0 0"/><path d="m1.984375 4.15625c0-1.097656.886719-1.984375 1.984375-1.984375h15.875c1.101562 0 1.988281.886719 1.988281 1.984375v9.921875h-1.988281v-4.960937h-15.875v9.921874c0 .550782.441406.992188.992188.992188h7.9375v1.988281h-8.929688c-1.097656 0-1.984375-.886719-1.984375-1.988281zm1.984375.992188v2.976562h15.875v-2.976562c0-.550782-.441406-.992188-.992188-.992188h-13.890624c-.550782 0-.992188.441406-.992188.992188zm0 0"/></g></svg>

<?xml version="1.0" encoding="UTF-8"?>
<svg xmlns="http://www.w3.org/2000/svg" xmlns:xlink="http://www.w3.org/1999/xlink" width="24px" height="24px" viewBox="0 0 24 24" version="1.1">
<g id="surface1">
<path style=" stroke:none;fill-rule:nonzero;fill:rgb(87.843138%,87.843138%,87.843138%);fill-opacity:1;" d="M 15.378906 16.0625 L 21.335938 16.0625 C 21.609375 16.0625 21.832031 16.285156 21.832031 16.558594 L 21.832031 17.550781 C 21.832031 17.828125 21.609375 18.046875 21.335938 18.046875 L 15.378906 18.046875 C 15.105469 18.046875 14.882812 17.828125 14.882812 17.550781 L 14.882812 16.558594 C 14.882812 16.285156 15.105469 16.0625 15.378906 16.0625 Z M 15.378906 16.0625 "/>
<path style=" stroke:none;fill-rule:nonzero;fill:rgb(87.843138%,87.843138%,87.843138%);fill-opacity:1;" d="M 15.378906 20.03125 L 21.335938 20.03125 C 21.609375 20.03125 21.832031 20.253906 21.832031 20.53125 L 21.832031 21.523438 C 21.832031 21.796875 21.609375 22.019531 21.335938 22.019531 L 15.378906 22.019531 C 15.105469 22.019531 14.882812 21.796875 14.882812 21.523438 L 14.882812 20.53125 C 14.882812 20.253906 15.105469 20.03125 15.378906 20.03125 Z M 15.378906 20.03125 "/>
<path style=" stroke:none;fill-rule:nonzero;fill:rgb(87.843138%,87.843138%,87.843138%);fill-opacity:1;" d="M 1.984375 4.15625 C 1.984375 3.058594 2.871094 2.171875 3.96875 2.171875 L 19.84375 2.171875 C 20.945312 2.171875 21.832031 3.058594 21.832031 4.15625 L 21.832031 14.078125 L 19.84375 14.078125 L 19.84375 9.117188 L 3.96875 9.117188 L 3.96875 19.039062 C 3.96875 19.589844 4.410156 20.03125 4.960938 20.03125 L 12.898438 20.03125 L 12.898438 22.019531 L 3.96875 22.019531 C 2.871094 22.019531 1.984375 21.132812 1.984375 20.03125 Z M 3.96875 5.148438 L 3.96875 8.125 L 19.84375 8.125 L 19.84375 5.148438 C 19.84375 4.597656 19.402344 4.15625 18.851562 4.15625 L 4.960938 4.15625 C 4.410156 4.15625 3.96875 4.597656 3.96875 5.148438 Z M 3.96875 5.148438 "/>
</g>
</svg>
